icons/move-up.svg

<svg fill="none" height="28" viewBox="0 0 28 28" width="28" xmlns="http://www.w3.org/2000/svg"><path d="m21.198 4.12545c.2021.01836.4425.06021.6743.16455l.2272.1252.2021.16455c.1824.17672.3106.38466.4024.56519.1297.25498.2331.54949.3184.85674.1709.61569.2962 1.38986.3899 2.2411.1881 1.70923.2559 3.85472.229 5.95422-.027 2.1003-.1486 4.1873-.3452 5.7843-.0978.7936-.2173 1.4977-.3631 2.0301-.0718.2619-.161.5235-.2773.744-.0856.1625-.3151.5617-.7869.694-.5868.164-1.0619-.1144-1.3361-.372-.2663-.2503-.4714-.5863-.6332-.9069-.3308-.6558-.6218-1.5451-.871-2.4521-.5028-1.8297-.8976-3.9687-1.1018-5.0188-.0965-.4965.2279-.9766.7244-1.0732.4962-.0964.9763.2266 1.0731.7226.2101 1.0806.5898 3.1384 1.0696 4.8847.1696.6172.3467 1.1665.5205 1.6079.0567-.3117.1141-.6746.1646-1.0839.1861-1.5117.3045-3.5296.3308-5.5857.0264-2.0567-.0393-4.1205-.2164-5.7289-.0889-.80775-.2031-1.47154-.3362-1.95135-.0668-.24044-.1313-.40927-.186-.5169-.0045-.0088-.0104-.01596-.0144-.02325-.0074-.00086-.0162-.00278-.025-.00358-.119-.01074-.2976-.00771-.5437.01967-.4924.05479-1.1474.19723-1.9281.41675-1.5548.43718-3.4942 1.14977-5.398 1.95671-1.9027.80652-3.74078 1.69355-5.09748 2.46825-.53609.3062-.98155.5859-1.31998.8281.12172.0153.25643.0308.40422.043 1.03734.0856 2.45282.0676 3.90094.0178 1.412-.0485 2.8918-.1285 3.9241-.152.5144-.0117.9813-.0122 1.3111.0197.1316.0127.38.04.5974.1449.0927.0447.4083.2105.5276.6063.1381.4589-.0991.803-.2075.9265-1.042 1.1869-3.2815 3.7676-5.262 6.0544-.9896 1.1426-1.9147 2.2114-2.59167 2.9941-.3383.3911-.61472.7116-.80665.9336-.09585.1109-.171.197-.22179.2558-.02498.0289-.04418.0511-.05723.0662-.00653.0075-.01279.014-.0161.0178-.00142.0017-.0028.0027-.00358.0036v.0018c-.33071.3827-.9105.4255-1.29315.0948-.38249-.3307-.42367-.9106-.09301-1.2932h.00179c.00083-.0009.00204-.0035.00358-.0053.00328-.0038.00822-.0091.01431-.0161.01308-.0151.0318-.0386.05723-.068.05082-.0588.12595-.1449.22179-.2557.19209-.2222.46983-.5422.80844-.9337.67723-.783 1.60161-1.8527 2.59164-2.9959 1.4029-1.6198 2.9406-3.3889 4.0887-4.7076-.9832.0308-2.2196.0927-3.5324.1378-1.44724.0497-2.95862.0738-4.11378-.0215-.56692-.0468-1.11973-.1272-1.5507-.279-.21278-.075-.46836-.1927-.68146-.3899-.2368-.2192-.43461-.556-.41137-.9838l.01788-.1484c.05964-.3316.24569-.5873.37203-.7387.16772-.2009.38173-.3953.60991-.5759.46016-.3642 1.08593-.76313 1.80111-1.17155 1.43774-.82104 3.34578-1.7397 5.29248-2.56484 1.9459-.82479 3.9618-1.56843 5.6161-2.03362.8238-.23161 1.5874-.40342 2.2215-.47398.3163-.03517.6274-.04734.9121-.02146z" fill="#fff"/></svg>

<svg width="28" height="28" viewBox="0 0 28 28" fill="none" xmlns="http://www.w3.org/2000/svg">
<path d="M21.198 4.12545C21.4001 4.14381 21.6405 4.18566 21.8723 4.29L22.0995 4.4152L22.3016 4.57975C22.484 4.75647 22.6122 4.96441 22.704 5.14494C22.8337 5.39992 22.9371 5.69443 23.0224 6.00168C23.1933 6.61737 23.3186 7.39154 23.4123 8.24278C23.6004 9.95201 23.6682 12.0975 23.6413 14.197C23.6143 16.2973 23.4927 18.3843 23.2961 19.9813C23.1983 20.7749 23.0788 21.479 22.933 22.0114C22.8612 22.2733 22.772 22.5349 22.6557 22.7554C22.5701 22.9179 22.3406 23.3171 21.8688 23.4494C21.282 23.6134 20.8069 23.335 20.5327 23.0774C20.2664 22.8271 20.0613 22.4911 19.8995 22.1705C19.5687 21.5147 19.2777 20.6254 19.0285 19.7184C18.5257 17.8887 18.1309 15.7497 17.9267 14.6996C17.8302 14.2031 18.1546 13.723 18.6511 13.6264C19.1473 13.53 19.6274 13.853 19.7242 14.349C19.9343 15.4296 20.314 17.4874 20.7938 19.2337C20.9634 19.8509 21.1405 20.4002 21.3143 20.8416C21.371 20.5299 21.4284 20.167 21.4789 19.7577C21.665 18.246 21.7834 16.2281 21.8097 14.172C21.8361 12.1153 21.7704 10.0515 21.5933 8.4431C21.5044 7.63535 21.3902 6.97156 21.2571 6.49175C21.1903 6.25131 21.1258 6.08248 21.0711 5.97485C21.0666 5.96605 21.0607 5.95889 21.0567 5.9516C21.0493 5.95074 21.0405 5.94882 21.0317 5.94802C20.9127 5.93728 20.7341 5.94031 20.488 5.96769C19.9956 6.02248 19.3406 6.16492 18.5599 6.38444C17.0051 6.82162 15.0657 7.53421 13.1619 8.34115C11.2592 9.14767 9.42112 10.0347 8.06442 10.8094C7.52833 11.1156 7.08287 11.3953 6.74444 11.6375C6.86616 11.6528 7.00087 11.6683 7.14866 11.6805C8.186 11.7661 9.60148 11.7481 11.0496 11.6983C12.4616 11.6498 13.9414 11.5698 14.9737 11.5463C15.4881 11.5346 15.955 11.5341 16.2848 11.566C16.4164 11.5787 16.6648 11.606 16.8822 11.7109C16.9749 11.7556 17.2905 11.9214 17.4098 12.3172C17.5479 12.7761 17.3107 13.1202 17.2023 13.2437C16.1603 14.4306 13.9208 17.0113 11.9403 19.2981C10.9507 20.4407 10.0256 21.5095 9.34863 22.2922C9.01033 22.6833 8.73391 23.0038 8.54198 23.2258C8.44613 23.3367 8.37098 23.4228 8.32019 23.4816C8.29521 23.5105 8.27601 23.5327 8.26296 23.5478C8.25643 23.5553 8.25017 23.5618 8.24686 23.5656C8.24544 23.5673 8.24406 23.5683 8.24328 23.5692V23.571C7.91257 23.9537 7.33278 23.9965 6.95013 23.6658C6.56764 23.3351 6.52646 22.7552 6.85712 22.3726H6.85891C6.85974 22.3717 6.86095 22.3691 6.86249 22.3673C6.86577 22.3635 6.87071 22.3582 6.8768 22.3512C6.88988 22.3361 6.9086 22.3126 6.93403 22.2832C6.98485 22.2244 7.05998 22.1383 7.15582 22.0275C7.34791 21.8053 7.62565 21.4853 7.96426 21.0938C8.64149 20.3108 9.56587 19.2411 10.5559 18.0979C11.9588 16.4781 13.4965 14.709 14.6446 13.3903C13.6614 13.4211 12.425 13.483 11.1122 13.5281C9.66496 13.5778 8.15358 13.6019 6.99842 13.5066C6.4315 13.4598 5.87869 13.3794 5.44772 13.2276C5.23494 13.1526 4.97936 13.0349 4.76626 12.8377C4.52946 12.6185 4.33165 12.2817 4.35489 11.8539L4.37277 11.7055C4.43241 11.3739 4.61846 11.1182 4.7448 10.9668C4.91252 10.7659 5.12653 10.5715 5.35471 10.3909C5.81487 10.0267 6.44064 9.62777 7.15582 9.21935C8.59356 8.39831 10.5016 7.47965 12.4483 6.65451C14.3942 5.82972 16.4101 5.08608 18.0644 4.62089C18.8882 4.38928 19.6518 4.21747 20.2859 4.14691C20.6022 4.11174 20.9133 4.09957 21.198 4.12545Z" fill="white"/>
</svg>
